X:1
T:Du bien de vous
T:Antoine Gardane
T:Source : Livre XX de 28 chansons nouvelles à 4 parties---Paris---P.Attaingnant---1546. Editor : André Vierendeels (07/07/18) Notes : Original clefs : C1, C3, C4, F4 Original note values have been halved Editorial accidentals above the staff Square brackets indicate ligatures
T:Du bien de vous
T:©
T:©
T:©
C:Antoine Gardane
Z:©
%%score [ 1 [ 2 3 ] 4 ]
L:1/8
Q:1/4=120
M:2/2
K:F
V:1 treble nm="Soprano" snm="S"
V:2 treble-8 nm="Tenor 1" snm="T 1"
V:3 treble-8 nm="Tenor 2" snm="T 2"
V:4 bass nm="Bass" snm="B"
V:1
 A4 A2 G2 | A4 z4 | z2 G2 G2 G2 | G4 A4 | c3 B A2 G2 | z2 G2 F4 | E4 D4 | D2 G4 F2 | %8
w: Du bien de|vous|tout- tes foys|que i'y|pen- * * se,|pro- ce-|d'a- mour|con- fit en|
"^b" E2 D2 FGAF | GA B2 G2 A2- | A2 G4 F2 | G8 | z2 d2 d2 d2 | B2 F2 G4- | G2 F2 E2 E2 | D4 z2 D2 | %16
w: re- do- len- * * *|||ce,|qui res- iou-|yt le myen|_ cueur ab- ba-|tu, en|
 F6 G2 | A3 A A2 A2 | B4 c4 | d2 B2 B3 A | G2 F4 E2 | F4 z4 | z8 | z4 z2 A2 | A2 F2 G2 E2- | %25
w: me ren-|dant u- ne tel-|le ver-|tu, u- ne tel-|le ver- *|tu,||que|sy mon oeil vous|
 E2 F2 D2 F2- | F2 G2 B2 A2- | A2 G4 F2 | G4 z2 G2 | G2 F4 G2 | E4 F2 D2 | z4 z2 A2 | %32
w: _ voy- oit en|_ pre- sen- *||ce, que|sy mon oeil|vous voy- oit,|que|
 A2 F2 G2 E2- | E2 F2 D2 F2- | F2 G2 B2 A2- |"^#" A2 G4 F2 | G8 |] %37
w: sy mon oeil vous|_ voy- oit en|_ pre- sen- *||ce.|
V:2
 z8 | d4 c2 c2 | d2 e2 e2 e2 | d2 c2 f4 | e8- | e4 z2 c2 | c4 A4 | G4 z2 F2 | B3 B B2 A2 | %9
w: |Du bien de|vous tout- tes foys|que i'y pen-|se,|_ pro-|ce- de'a-|mour con-|fit en re- do-|
 B3 c d4- | d4 z2 d2 | d2 d2 B3 B | B2 A2 G2 G2 | d4 z2 d2 | d2 d2 c2 c2 | A2 z A A2 B2 | %16
w: len- * ce,|_ qui|res- iou- yt le|myen cueur ab- ba-|tu, le|myen cueur ab- ba-|tu, en me ren-|
 A2 d2 d2 d2 | f3 e d2 c2- |"^b" c2 B2 e4 | d8 | z2 d2 d2 B2 | c2 A4 B2 | F2 c4 B2- | B2 AG c2 A2 | %24
w: dant, en me ren-|dant u- ne tel-|* le ver-|tu,|que sy mon|oeil vous voy-|oit en pre-|* * * sen- ce,|
 z2 d4 c2- | cBAG F4 | c4 d2 f2- | f2 e2 d4 | z2 d2 d2 B2 | c2 A4 B2 | G2 c4 B2- | B2 AG c2 A2 | %32
w: vous voy-|* * * * oit|en pre- sen-|* * ce,|que su mon|oeil vous voy-|oit en pre-|* * * sen- ce,|
 z2 d4 c2- | cBAG F4 | c4 d2 f2- | fedc d4 | d8 |] %37
w: vous voy-|* * * * oit|en pre- sen-||ce.|
V:3
 z8 | A4 A2 G2 | A2 c2 c2 c2 | B2 G2 d4 | G4 z2 c2 | c4 A4 | G4 z2 F2 | B3 B B2 A2 | G4 D2 d2 | %9
w: |Du bien de|vous tout- tes foys|que i'y pen-|se, pro-|ce- de'a-|mour con-|fit en re- do-|len- ce, con-|
 d3 c B2 A2 | B4 A4 | G4 z2 d2 | d2 d2 B3 B | B2 A2 B4- | B4 G4 | F8 | z2 A2 A2 B2 | A8 | %18
w: fit en re- do-|len- *|ce, qui|res- iou- yt le|myen cueur ab-|* ba-|tu,|en me ren-|dant,|
 z2 G2 G2 G2 | B3 A G2 F2 | B4 G4 | F8 | z2 A2 A2 F2 | G2 E4 F2 | D2 A4 G2 | A2 F2 B2 A2- | %26
w: en me ren-|dant u- ne tel-|le ver-|tu,|que sy mon|oeil vous voy-|oit en pre-|sen- * * *|
 A2 G4 F2 | c2 B2 A4 | G8 | z8 | z2 A2 A2 F2 | G2 E4 F2 | D2 A4 G2 | A2 F2 B2 A2- | A2 G4 F2 | %35
w: ||ce,||que sy mon|oeil vous voy-|oit en pre-|sen- * * *||
 c2 B2 A4 | G8 |] %37
w: |ce.|
V:4
 z8 | D,4 F,2 E,2 | D,2 C,2 C,2 C,2 | G,2 E,2 D,4 | C,8 | z2 C,2 D,2 F,2 | C,2 C,2 D,3 C, | %7
w: |Du bien de|vous tout- tes foys|que i'y pen-|se,|pro- ce- de'a-|mour con- fit en|
"^b" B,,2 E,2 D,4 | G,,4 z2 D,2 | G,3 G, G,2 F,2 | G,4 D,4 | z2 G,2 G,2 G,2 | D,4 z2 G,2 | %13
w: re- do- len-|ce, con|fit en re- do-|len- ce,|qui res- iou-|yt le|
 G,2 D,2 G,4- | G,4 C,4 | D,8 | z2 D,2 D,2 G,2 | F,2 D,2 F,3 E, |"^b" D,2 E,2 C,2 C,2 | B,,8- | %20
w: myen cueur ab-|* ba-|tu,|en me ren-|dant u- ne _|_ tel- le ver-|tu,|
 B,,4 z4 | z2 D,2 D,2 B,,2 | C,2 A,,4 B,,2 | G,,2 C,4 D,2 | F,4 E,4 | z2 D,2 D,C,D,E, | %26
w: _|que sy mon|oeil vous voy-|oit en pre-|sen- ce,|en pre- * * *|
 F,2 E,2 D,3 E, | F,2 G,2 D,4 | G,,8 | z2 D,2 D,2 B,,2 | C,2 A,,4 B,,2 | G,,2 C,4 D,2 | F,4 E,4 | %33
w: * sen- * *||ce,|que sy mon|oeil vous voy-|oit en pre-|sen- ce,|
 z2 D,2 D,C,D,E, | F,2 E,2 D,3 E, | F,2 G,2 D,4 | G,,8 |] %37
w: en pre- * * *|* sen- * *||ce.|

